src/Assets/cancel (1).svg

<svg width="33" height="32" viewBox="0 0 33 32" fill="none" xmlns="http://www.w3.org/2000/svg">
<path d="M0.5 16C0.5 7.16344 7.66344 0 16.5 0C25.3366 0 32.5 7.16344 32.5 16C32.5 24.8366 25.3366 32 16.5 32C7.66344 32 0.5 24.8366 0.5 16Z" fill="white"/>
<path d="M14.6208 11.315C14.5445 11.2381 14.4537 11.177 14.3537 11.1354C14.2537 11.0937 14.1465 11.0723 14.0382 11.0723C13.9299 11.0723 13.8226 11.0937 13.7226 11.1354C13.6226 11.177 13.5319 11.2381 13.4556 11.315L9.35306 15.4175C9.27615 15.4938 9.21511 15.5846 9.17345 15.6846C9.1318 15.7845 9.11035 15.8918 9.11035 16.0001C9.11035 16.1084 9.1318 16.2157 9.17345 16.3157C9.21511 16.4156 9.27615 16.5064 9.35306 16.5827L13.4556 20.6852C13.5319 20.7621 13.6226 20.8232 13.7226 20.8648C13.8226 20.9065 13.9299 20.9279 14.0382 20.9279C14.1465 20.9279 14.2537 20.9065 14.3537 20.8648C14.4537 20.8232 14.5445 20.7621 14.6208 20.6852C14.6977 20.609 14.7587 20.5182 14.8004 20.4182C14.842 20.3182 14.8635 20.211 14.8635 20.1027C14.8635 19.9943 14.842 19.8871 14.8004 19.7871C14.7587 19.6871 14.6977 19.5964 14.6208 19.5201L11.0925 16.0001L14.6208 12.4801C14.6977 12.4038 14.7587 12.3131 14.8004 12.2131C14.842 12.1131 14.8635 12.0059 14.8635 11.8975C14.8635 11.7892 14.842 11.682 14.8004 11.582C14.7587 11.482 14.6977 11.3912 14.6208 11.315Z" fill="#2F32DE"/>
<path d="M20.779 11.3199C20.7027 11.2429 20.6119 11.1819 20.5119 11.1403C20.412 11.0986 20.3047 11.0771 20.1964 11.0771C20.0881 11.0771 19.9808 11.0986 19.8808 11.1403C19.7809 11.1819 19.6901 11.2429 19.6138 11.3199L15.5113 15.4224C15.4344 15.4987 15.3733 15.5894 15.3317 15.6894C15.29 15.7894 15.2686 15.8967 15.2686 16.005C15.2686 16.1133 15.29 16.2205 15.3317 16.3205C15.3733 16.4205 15.4344 16.5113 15.5113 16.5875L19.6138 20.6901C19.6901 20.767 19.7809 20.8281 19.8808 20.8697C19.9808 20.9114 20.0881 20.9328 20.1964 20.9328C20.3047 20.9328 20.412 20.9114 20.5119 20.8697C20.6119 20.8281 20.7027 20.767 20.779 20.6901C20.8559 20.6138 20.9169 20.5231 20.9586 20.4231C21.0002 20.3231 21.0217 20.2159 21.0217 20.1075C21.0217 19.9992 21.0002 19.892 20.9586 19.792C20.9169 19.692 20.8559 19.6013 20.779 19.525L17.2507 16.005L20.779 12.485C20.8559 12.4087 20.9169 12.318 20.9586 12.218C21.0002 12.118 21.0217 12.0107 21.0217 11.9024C21.0217 11.7941 21.0002 11.6869 20.9586 11.5869C20.9169 11.4869 20.8559 11.3961 20.779 11.3199Z" fill="#2F32DE"/>
</svg>

<svg xmlns="http://www.w3.org/2000/svg" width="33" height="32" fill="none"><path fill="#fff" d="M.5 16c0-8.837 7.163-16 16-16s16 7.163 16 16-7.163 16-16 16-16-7.163-16-16"/><path fill="#2F32DE" d="M14.62 11.315a.82.82 0 0 0-1.164 0l-4.103 4.103a.82.82 0 0 0 0 1.165l4.103 4.102a.82.82 0 0 0 1.165 0 .82.82 0 0 0 0-1.165L11.092 16l3.529-3.52a.82.82 0 0 0 0-1.165M20.779 11.32a.82.82 0 0 0-1.165 0l-4.103 4.102a.82.82 0 0 0 0 1.165l4.103 4.103a.82.82 0 0 0 1.345-.267.82.82 0 0 0-.18-.898l-3.528-3.52 3.528-3.52a.82.82 0 0 0 0-1.165"/></svg>
